X:515
T:Major Molle
R:Reel
C:Andrew Gow
B:The Athole Collection
M:C|
L:1/8
K:A Minor
c|Aeed cBA^G|Aeed c2B2|Aee^f gfge|dBGB edcB:|
AE E/E/E cAB^G|AE E/E/E c2Bc|AE E/E/E cABd|
BGGB d2cB|AE E/E/E cAB^G|AE E/E/E c2Bc|Aee^f gfge|
DBGB edcB||

